; generated by PrusaSlicer 2.9.4 on 2026-05-30 at 22:08:54 UTC


;
;
; 

; external perimeters extrusion width = 0.45mm
; perimeters extrusion width = 0.45mm
; infill extrusion width = 0.45mm
; solid infill extrusion width = 0.45mm
; top infill extrusion width = 0.40mm
; first layer extrusion width = 0.42mm

; external perimeters extrusion width = 0.45mm
; perimeters extrusion width = 0.45mm
; infill extrusion width = 0.45mm
; solid infill extrusion width = 0.45mm
; top infill extrusion width = 0.40mm
; first layer extrusion width = 0.42mm

; external perimeters extrusion width = 0.45mm
; perimeters extrusion width = 0.45mm
; infill extrusion width = 0.45mm
; solid infill extrusion width = 0.45mm
; top infill extrusion width = 0.40mm
; first layer extrusion width = 0.42mm

; external perimeters extrusion width = 0.45mm
; perimeters extrusion width = 0.45mm
; infill extrusion width = 0.45mm
; solid infill extrusion width = 0.45mm
; top infill extrusion width = 0.40mm
; first layer extrusion width = 0.42mm

; external perimeters extrusion width = 0.45mm
; perimeters extrusion width = 0.45mm
; infill extrusion width = 0.45mm
; solid infill extrusion width = 0.45mm
; top infill extrusion width = 0.40mm
; first layer extrusion width = 0.42mm

M73 P0 R191
M73 Q0 S192
M201 X1000 Y1000 Z200 E5000 ; sets maximum accelerations, mm/sec^2
M203 X200 Y200 Z12 E120 ; sets maximum feedrates, mm / sec
M204 S1250 T1250 ; sets acceleration (S) and retract acceleration (R), mm/sec^2
M205 X8.00 Y8.00 Z0.40 E4.50 ; sets the jerk limits, mm/sec
M205 S0 T0 ; sets the minimum extruding and travel feed rate, mm/sec

; printing object GearZeci.stl id:0 copy 0
; stop printing object GearZeci.stl id:0 copy 0
; printing object CarcasaSus.stl id:1 copy 0
; stop printing object CarcasaSus.stl id:1 copy 0
; printing object GearUnitati.stl id:4 copy 0
; stop printing object GearUnitati.stl id:4 copy 0
; printing object CarcasaJos.stl id:3 copy 0
; stop printing object CarcasaJos.stl id:3 copy 0
; printing object RotitaADD.stl id:2 copy 0
; stop printing object RotitaADD.stl id:2 copy 0

;TYPE:Custom
M862.3 P "MK3S" ; printer model check
M862.1 P0.4 ; nozzle diameter check
M115 U3.14.1 ; tell printer latest fw version
G90 ; use absolute coordinates
M83 ; extruder relative mode
M104 S250 ; set extruder temp
M140 S85 ; set bed temp
M190 S85 ; wait for bed temp
M109 S250 ; wait for extruder temp
G28 W ; home all without mesh bed level
G80 X62.6888 Y27.1741 W126.564 H83.3227 ; mesh bed levelling

G1 Z0.2 F720
G1 Y-3 F1000 ; go outside print area
G92 E0
G1 X60 E9 F1000 ; intro line
G1 X100 E12.5 F1000 ; intro line

G92 E0
M221 S95

; Don't change E values below. Excessive value can damage the printer.

M907 E538 ; set extruder motor current
G21 ; set units to millimeters
G90 ; use absolute coordinates
M83 ; use relative distances for extrusion

M900 K0.08 ; Filament gcode LA 1.5
M900 K45 ; Filament gcode LA 1.0




M107
;LAYER_CHANGE
;Z:0.2
;HEIGHT:0.2
G1 E-1 F2100
G1 Z.4 F720
G1 X66.046 Y35.437 F10800
G1 Z.2 F720
G1 E1 F2100
M204 S800
;TYPE:Skirt/Brim
;WIDTH:0.42
G1 F1200
G1 X66.69 Y34.519 E.03516
G1 X67.537 Y33.565 E.04
G1 X74.799 Y28.289 E.28144
G1 X75.343 Y28.001 E.0193
G1 X76.447 Y27.622 E.0366
G1 X77.649 Y27.363 E.03855
G1 X86.7 Y27.364 E.28379
G1 X174.147 Y30.336 E2.74342
G1 X174.663 Y30.416 E.01637
G1 X176.091 Y30.847 E.04677
G1 X177.358 Y31.402 E.04337
G1 X184.262 Y36.418 E.26757
G1 X184.691 Y36.83 E.01865
G1 X185.593 Y38.019 E.04679
G1 X186.292 Y39.212 E.04335
G1 X188.929 Y47.328 E.26757
G1 X189.034 Y47.915 E.0187
G1 X189.031 Y50.256 E.0734
G1 X186.913 Y81.053 E.9679
G1 X186.601 Y82.546 E.04782
G1 X186.097 Y83.701 E.03951
G1 X185.382 Y84.739 E.03952
G1 X184.485 Y85.623 E.03949
G1 X183.436 Y86.321 E.03951
G1 X182.329 Y86.795 E.03776
G1 X95.328 Y110.315 E2.82578
G1 X94.021 Y110.263 E.04101
G1 X93.119 Y109.653 E.03414
G1 X92.067 Y108.453 E.05004
G1 X91.048 Y107.011 E.05536
G1 X90.247 Y105.584 E.05131
G1 X65.896 Y56.354 E1.72208
G1 X63.002 Y47.523 E.29138
G1 X62.896 Y46.917 E.01929
G1 X62.896 Y45.132 E.05597
G1 X63.002 Y44.526 E.01929
G1 X65.776 Y35.989 E.28145
G1 X66.02 Y35.491 E.01739
M204 S1000
;WIPE_START
G1 F8640
G1 X66.046 Y35.437 E-.01384
G1 X66.69 Y34.519 E-.25893
G1 X67.537 Y33.565 E-.29457
G1 X69.053 Y32.464 E-.43266
;WIPE_END
G1 Z.4 F720
; printing object CarcasaSus.stl id:1 copy 0
G1 X92.737 Y97.661 F10800
G1 Z.2 F720
G1 E1 F2100
M204 S800
;TYPE:External perimeter
;WIDTH:0.461218
G1 F1200
G1 X92.685 Y97.661 E.00181
G1 X92.658 Y97.707 E.00186
G1 X92.685 Y97.752 E.00183
G1 X92.737 Y97.752 E.00181
G1 X92.763 Y97.707 E.00181
M204 S1000
G1 X92.022 Y97.561 F10800
M204 S800
;WIDTH:0.45227
G1 F1200
G1 X91.971 Y97.561 E.00174
G1 X91.945 Y97.605 E.00174
G1 X91.971 Y97.649 E.00174
G1 X92.022 Y97.649 E.00174
G1 X92.048 Y97.605 E.00174
M204 S1000
;WIPE_START
G1 F8640
G1 X92.022 Y97.649 E-.0118
G1 X91.971 Y97.649 E-.01178
G1 X91.945 Y97.605 E-.0118
G1 X91.971 Y97.561 E-.0118
G1 X92.022 Y97.561 E-.01178
;WIPE_END
G1 E-.94104 F2100
G1 Z.4 F720
G1 X92.315 Y95.407 F10800
G1 Z.2 F720
G1 E1 F2100
M204 S800
;WIDTH:0.453268
G1 F1200
G1 X92.264 Y95.407 E.00174
G1 X92.239 Y95.452 E.00176
G1 X92.264 Y95.496 E.00173
G1 X92.315 Y95.496 E.00174
G1 X92.341 Y95.452 E.00174
M204 S1000
G1 X93.032 Y95.5 F10800
M204 S800
;WIDTH:0.460762
G1 F1200
G1 X92.979 Y95.5 E.00184
G1 X92.953 Y95.545 E.00181
G1 X92.979 Y95.59 E.00181
G1 X93.032 Y95.59 E.00184
G1 X93.058 Y95.545 E.00181
M204 S1000
;WIPE_START
G1 F8640
G1 X93.032 Y95.59 E-.012
G1 X92.979 Y95.59 E-.01224
G1 X92.953 Y95.545 E-.012
G1 X92.979 Y95.5 E-.012
G1 X93.032 Y95.5 E-.01224
;WIPE_END
G1 E-.93952 F2100
G1 Z.4 F720
G1 X91.707 Y96.415 F10800
G1 Z.2 F720
G1 E1 F2100
M204 S800
;TYPE:Perimeter
;WIDTH:0.503858
G1 F1200
G1 X91.65 Y96.415 E.00218
G1 X91.621 Y96.465 E.00222
G1 X91.65 Y96.515 E.00222
G1 X91.707 Y96.515 E.00218
G1 X91.736 Y96.465 E.00222
M204 S1000
G1 X92.281 Y96.547 F10800
M204 S800
;TYPE:External perimeter
;WIDTH:0.419999
G1 F1200
G1 X91.564 Y97.064 E.02772
G1 X91.233 Y96.629 E.01714
G1 X91.293 Y96.189 E.01392
G1 X91.729 Y95.858 E.01716
G1 X92.243 Y96.5 E.02579
M204 S1000
;WIPE_START
G1 F8640
G1 X92.281 Y96.547 E-.01396
G1 X91.564 Y97.064 E-.20411
G1 X91.233 Y96.629 E-.12621
G1 X91.293 Y96.189 E-.10254
G1 X91.729 Y95.858 E-.1264
G1 X92.243 Y96.5 E-.1899
;WIPE_END
G1 E-.23688 F2100
G1 Z.4 F720
G1 X93.363 Y96.642 F10800
G1 Z.2 F720
G1 E1 F2100
M204 S800
;TYPE:Perimeter
;WIDTH:0.498818
G1 F1200
G1 X93.306 Y96.642 E.00216
G1 X93.278 Y96.691 E.00214
G1 X93.306 Y96.74 E.00214
G1 X93.363 Y96.74 E.00216
G1 X93.392 Y96.691 E.00216
M204 S1000
G1 X92.742 Y96.611 F10800
M204 S800
;TYPE:External perimeter
;WIDTH:0.419999
G1 F1200
G1 X93.448 Y96.09 E.02751
G1 X93.778 Y96.522 E.01704
G1 X93.718 Y96.966 E.01405
G1 X93.282 Y97.298 E.01718
G1 X92.779 Y96.658 E.02552
M204 S1000
;WIPE_START
G1 F8640
G1 X92.742 Y96.611 E-.01381
G1 X93.448 Y96.09 E-.2026
G1 X93.778 Y96.522 E-.12552
G1 X93.718 Y96.966 E-.10345
G1 X93.282 Y97.298 E-.12654
G1 X92.779 Y96.658 E-.18796
;WIPE_END
G1 E-.24012 F2100
G1 Z.4 F720
G1 X93.687 Y94.62 F10800
G1 Z.2 F720
G1 E1 F2100
M204 S800
;WIDTH:0.455858
G1 F1200
G1 X91.9 Y94.007 E.06487
G1 X92.034 Y93.616 E.01419
G1 X93.821 Y94.229 E.06487
G1 X93.706 Y94.563 E.01213
M204 S1000
;WIPE_START
G1 F8640
G1 X93.687 Y94.62 E-.01387
G1 X91.9 Y94.007 E-.43623
G1 X92.034 Y93.616 E-.09544
G1 X93.821 Y94.229 E-.43623
G1 X93.795 Y94.304 E-.01823
;WIPE_END
G1 Z.4 F720
G1 X94.215 Y93.276 F10800
G1 Z.2 F720
G1 E1 F2100
M204 S800
;WIDTH:0.45586
G1 F1200
G1 X92.516 Y92.45 E.06487
G1 X92.696 Y92.078 E.01419
G1 X94.395 Y92.905 E.06488
G1 X94.241 Y93.222 E.0121
M204 S1000
;WIPE_START
G1 F8640
G1 X94.215 Y93.276 E-.01384
G1 X92.516 Y92.45 E-.43621
G1 X92.696 Y92.078 E-.09542
G1 X94.395 Y92.905 E-.43631
G1 X94.36 Y92.976 E-.01822
;WIPE_END
G1 Z.4 F720
G1 X93.317 Y90.979 F10800
G1 Z.2 F720
G1 E1 F2100
M204 S800
G1 F1200
G1 X93.541 Y90.633 E.01415
G1 X95.127 Y91.66 E.06488
G1 X94.902 Y92.007 E.0142
G1 X93.367 Y91.012 E.06281
M204 S1000
;WIPE_START
G1 F8640
G1 X93.317 Y90.979 E-.01383
G1 X93.541 Y90.633 E-.09517
G1 X95.127 Y91.66 E-.43629
G1 X94.902 Y92.007 E-.09549
G1 X93.597 Y91.161 E-.35922
;WIPE_END
G1 Z.4 F720
G1 X95.725 Y88.103 F10800
G1 Z.2 F720
G1 E1 F2100
M204 S800
;WIDTH:0.455859
G1 F1200
G1 X97.015 Y89.483 E.06486
G1 X96.714 Y89.765 E.01416
G1 X95.424 Y88.385 E.06486
G1 X95.682 Y88.144 E.01212
M204 S1000
;WIPE_START
G1 F8640
G1 X95.725 Y88.103 E-.01372
G1 X97.015 Y89.483 E-.43619
G1 X96.714 Y89.765 E-.09524
G1 X95.424 Y88.385 E-.43619
G1 X95.483 Y88.33 E-.01866
;WIPE_END
G1 Z.4 F720
G1 X96.698 Y87.299 F10800
G1 Z.2 F720
G1 E1 F2100
M204 S800
;WIDTH:0.455861
G1 F1200
G1 X97.032 Y87.056 E.01418
G1 X98.144 Y88.583 E.06486
G1 X97.81 Y88.826 E.01418
G1 X96.734 Y87.348 E.06277
M204 S1000
;WIPE_START
G1 F8640
G1 X96.698 Y87.299 E-.01404
G1 X97.032 Y87.056 E-.09537
G1 X98.144 Y88.583 E-.43617
G1 X97.81 Y88.826 E-.09537
G1 X96.894 Y87.568 E-.35905
;WIPE_END
G1 Z.4 F720
G1 X101.865 Y86.872 F10800
G1 Z.2 F720
G1 E1 F2100
M204 S800
;TYPE:Perimeter
;WIDTH:0.419999
G1 F1200
G1 X101.81 Y86.907 E.00204
G1 X101.628 Y86.889 E.00573
G1 X101.29 Y86.949 E.01076
G1 X101.218 Y86.519 E.01367
G1 X101.173 Y85.991 E.01662
G1 X101.435 Y85.788 E.01039
G1 X101.664 Y85.735 E.00737
G1 X101.84 Y85.834 E.00633
G1 X102 Y86.076 E.0091
G1 X102.249 Y86.685 E.02063
G1 X102.09 Y86.728 E.00516
G1 X101.915 Y86.84 E.00651
M204 S1000
G1 X102.163 Y87.124 F10800
M204 S800
;TYPE:External perimeter
G1 F1200
G1 X102.097 Y87.151 E.00224
G1 X102.055 Y87.503 E.01111
G1 X101.869 Y87.554 E.00605
G1 X101.648 Y87.275 E.01116
G1 X101.537 Y87.272 E.00348
G1 X100.86 Y87.458 E.02201
G1 X100.918 Y86.984 E.01497
G1 X100.797 Y86.31 E.02147
G1 X100.816 Y85.85 E.01444
G1 X101.035 Y85.604 E.01033
M73 P0 R190
G1 X101.381 Y85.386 E.01282
G1 X101.71 Y85.351 E.01037
G1 X102.009 Y85.457 E.00995
G1 X102.278 Y85.758 E.01266
G1 X102.588 Y86.525 E.02594
G1 X102.896 Y86.897 E.01514
G1 X102.326 Y87.055 E.01855
G1 X102.218 Y87.1 E.00367
M204 S1000
G1 X102.006 Y86.495 F10800
M204 S800
;TYPE:Solid infill
;WIDTH:0.46457
G1 F1200
G1 X101.459 Y85.947 E.02715
M204 S1000
;WIPE_START
G1 F8640
G1 X102.006 Y86.495 E-.17878
;WIPE_END
G1 E-.82122 F2100
G1 Z.4 F720
G1 X104.791 Y86.437 F10800
G1 Z.2 F720
G1 E1 F2100
M204 S800
;TYPE:External perimeter
;WIDTH:0.45586
G1 F1200
G1 X104.491 Y86.446 E.01031
G1 X104.489 Y86.367 E.00271
G1 X104.373 Y86.272 E.00515
G1 X104.322 Y84.561 E.05878
G1 X104.735 Y84.548 E.01419
G1 X104.79 Y86.377 E.06283
M204 S1000
;WIPE_START
G1 F8640
G1 X104.791 Y86.437 E-.01386
G1 X104.491 Y86.446 E-.0693
G1 X104.489 Y86.367 E-.01825
G1 X104.373 Y86.272 E-.03462
G1 X104.322 Y84.561 E-.39525
G1 X104.735 Y84.548 E-.09541
G1 X104.783 Y86.164 E-.37331
;WIPE_END
G1 Z.4 F720
G1 X94.159 Y97.225 F10800
G1 Z.2 F720
G1 E1 F2100
M204 S800
;WIDTH:0.38292
G1 F1200
G1 X94.329 Y96.417 E.02334
M204 S1000
;WIPE_START
G1 F8640
G1 X94.159 Y97.225 E-.19065
;WIPE_END
G1 E-.80935 F2100
G1 Z.4 F720
G1 X91.988 Y92.914 F10800
G1 Z.2 F720
G1 E1 F2100
M204 S800
;WIDTH:0.407214
G1 F1200
G1 X93.982 Y93.738 E.06535
M204 S1000
;WIPE_START
G1 F8640
G1 X91.988 Y92.914 E-.49818
;WIPE_END
G1 E-.50182 F2100
G1 Z.4 F720
G1 X92.737 Y91.377 F10800
G1 Z.2 F720
G1 E1 F2100
M204 S800
;WIDTH:0.407166
G1 F1200
G1 X94.615 Y92.437 E.06531
M204 S1000
;WIPE_START
G1 F8640
G1 X92.737 Y91.377 E-.49794
;WIPE_END
G1 E-.50206 F2100
G1 Z.4 F720
G1 X96.02 Y87.469 F10800
G1 Z.2 F720
G1 E1 F2100
M204 S800
;WIDTH:0.405988
G1 F1200
G1 X97.388 Y89.125 E.06485
M204 S1000
;WIPE_START
G1 F8640
G1 X96.02 Y87.469 E-.49597
;WIPE_END
G1 E-.50403 F2100
G1 Z.4 F720
G1 X99.919 Y87.8 F10800
G1 Z.2 F720
G1 E1 F2100
M204 S800
;WIDTH:0.41896
G1 F1200
G1 X100.103 Y87.536 E.01006
;WIDTH:0.455
G1 X100.287 Y87.272 E.01103
G1 X100.332 Y87.098 E.00616
;WIDTH:0.41896
G1 X100.378 Y86.924 E.00563
;WIDTH:0.42419
G1 X100.328 Y86.831 E.00335
;WIDTH:0.46546
G1 X100.278 Y86.737 E.00374
;WIDTH:0.50673
G1 X100.229 Y86.644 E.00405
G1 X100.147 Y86.645 E.00316
;WIDTH:0.46546
G1 X100.065 Y86.645 E.00288
;WIDTH:0.42419
G1 X99.984 Y86.646 E.00257
G1 X100.065 Y86.645 E.00257
;WIDTH:0.46546
G1 X100.147 Y86.645 E.00288
;WIDTH:0.50673
G1 X100.229 Y86.644 E.00316
G1 X100.24 Y86.564 E.00311
;WIDTH:0.46546
G1 X100.251 Y86.484 E.00284
;WIDTH:0.42419
G1 X100.262 Y86.403 E.00259
;WIDTH:0.418047
G1 X100.218 Y86.225 E.00572
;WIDTH:0.453174
G1 X100.174 Y86.047 E.00625
G1 X100.253 Y85.872 E.00655
;WIDTH:0.418047
G1 X100.332 Y85.696 E.00602
M204 S1000
;WIPE_START
G1 F8640
G1 X100.253 Y85.872 E-.04455
G1 X100.174 Y86.047 E-.04433
G1 X100.218 Y86.225 E-.04234
G1 X100.262 Y86.403 E-.04234
G1 X100.251 Y86.484 E-.01887
G1 X100.24 Y86.564 E-.01865
G1 X100.229 Y86.644 E-.01865
G1 X100.147 Y86.645 E-.01894
G1 X100.065 Y86.645 E-.01893
G1 X99.984 Y86.646 E-.0187
G1 X100.065 Y86.645 E-.0187
G1 X100.147 Y86.645 E-.01893
G1 X100.229 Y86.644 E-.01894
G1 X100.278 Y86.737 E-.02427
G1 X100.328 Y86.831 E-.02458
G1 X100.378 Y86.924 E-.02438
G1 X100.332 Y87.098 E-.04156
G1 X100.287 Y87.272 E-.0415
G1 X100.103 Y87.536 E-.0743
G1 X99.919 Y87.8 E-.0743
;WIPE_END
G1 E-.35224 F2100
G1 Z.4 F720
G1 X102.755 Y85.353 F10800
G1 Z.2 F720
G1 E1 F2100
M204 S800
;WIDTH:0.49871
G1 F1200
G1 X102.824 Y85.541 E.00759
;WIDTH:0.449445
G1 X102.893 Y85.729 E.00677
;WIDTH:0.444384
G1 X102.936 Y85.78 E.00223
;WIDTH:0.488587
G1 X102.979 Y85.83 E.00244
;WIDTH:0.53279
G1 X103.022 Y85.881 E.00272
M204 S1000
G1 X103.614 Y85.763 F10800
M204 S800
;WIDTH:0.585316
G1 F1200
G1 X103.537 Y85.761 E.00347
;WIDTH:0.544837
G1 X103.459 Y85.759 E.00326
;WIDTH:0.504358
G1 X103.382 Y85.757 E.00296
;WIDTH:0.463879
G1 X103.304 Y85.755 E.00273
;WIDTH:0.4234
G1 X103.227 Y85.753 E.00244
;WIDTH:0.432877
G1 X103.159 Y85.796 E.00261
;WIDTH:0.482834
G1 X103.09 Y85.838 E.00295
;WIDTH:0.53279
G1 X103.022 Y85.881 E.00328
G1 X103.028 Y85.986 E.00428
;WIDTH:0.482834
G1 X103.034 Y86.09 E.00381
;WIDTH:0.432877
G1 X103.041 Y86.195 E.00341
;WIDTH:0.43218
G1 X103.169 Y86.319 E.00577
;WIDTH:0.48144
G1 X103.297 Y86.443 E.0065
G1 X103.509 Y86.556 E.00876
M204 S1000
;WIPE_START
G1 F8640
G1 X103.297 Y86.443 E-.05547
G1 X103.169 Y86.319 E-.04115
G1 X103.041 Y86.195 E-.04115
G1 X103.034 Y86.09 E-.0243
G1 X103.028 Y85.986 E-.02405
M73 Q0 S191
G1 X103.022 Y85.881 E-.02428
G1 X103.09 Y85.838 E-.01858
G1 X103.159 Y85.796 E-.01865
G1 X103.227 Y85.753 E-.01858
G1 X103.304 Y85.755 E-.01779
G1 X103.382 Y85.757 E-.01802
G1 X103.459 Y85.759 E-.01779
G1 X103.537 Y85.761 E-.01802
G1 X103.614 Y85.763 E-.01779
;WIPE_END
G1 E-.64438 F2100
G1 Z.4 F720
G1 X105.375 Y84.266 F10800
G1 Z.2 F720
G1 E1 F2100
M204 S800
;WIDTH:0.40626
G1 F1200
G1 X105.308 Y86.414 E.06493
M204 S1000
;WIPE_START
G1 F8640
G1 X105.375 Y84.266 E-.49622
;WIPE_END
G1 E-.50378 F2100
G1 Z.4 F720
G1 X107.077 Y84.42 F10800
G1 Z.2 F720
G1 E1 F2100
M204 S800
;WIDTH:0.40655
G1 F1200
G1 X106.749 Y86.547 E.06507
M204 S1000
;WIPE_START
G1 F8640
G1 X107.077 Y84.42 E-.49694
;WIPE_END
G1 E-.50306 F2100
G1 Z.4 F720
G1 X103.635 Y84.959 F10800
G1 Z.2 F720
G1 E1 F2100
M204 S800
;WIDTH:0.472387
G1 F1200
G1 X102.974 Y85.171 E.02479
G1 X103.435 Y84.36 E.03331
G1 X103.634 Y84.347 E.00712
G1 X103.635 Y84.899 E.01971
M204 S1000
;WIPE_START
G1 F8640
G1 X103.635 Y84.959 E-.01385
G1 X102.974 Y85.171 E-.16028
G1 X103.435 Y84.36 E-.2154
G1 X103.634 Y84.347 E-.04605
G1 X103.635 Y84.899 E-.12746
;WIPE_END
G1 E-.43696 F2100
G1 Z.4 F720
G1 X102.366 Y84.988 F10800
G1 Z.2 F720
G1 E1 F2100
M204 S800
;WIDTH:0.422595
G1 F1200
G1 X102.073 Y84.838 E.01039
G1 X101.751 Y84.799 E.01024
G1 X101.723 Y84.625 E.00556
G1 X102.617 Y84.457 E.02872
G1 X102.421 Y84.812 E.0128
G1 X102.384 Y84.931 E.00393
M204 S1000
;WIPE_START
G1 F8640
G1 X102.366 Y84.988 E-.0138
G1 X102.073 Y84.838 E-.076
G1 X101.751 Y84.799 E-.07489
G1 X101.723 Y84.625 E-.04069
G1 X102.617 Y84.457 E-.21004
G1 X102.421 Y84.812 E-.09363
G1 X102.384 Y84.931 E-.02877
;WIPE_END
G1 E-.46218 F2100
G1 Z.4 F720
G1 X100.332 Y85.696 F10800
G1 Z.2 F720
G1 E1 F2100
M204 S800
;WIDTH:0.408279
G1 F1200
G1 X100.305 Y85.489 E.00634
;WIDTH:0.419621
G1 X99.867 Y85.212 E.01623
G1 X100.697 Y84.906 E.02771
